assets/build/img/icons/option-whatsapp.svg

<?xml version="1.0" encoding="UTF-8"?>
<svg width="32px" height="32px" viewBox="0 0 32 32" version="1.1" xmlns="http://www.w3.org/2000/svg" xmlns:xlink="http://www.w3.org/1999/xlink">
    <!-- Generator: sketchtool 51.3 (57544) - http://www.bohemiancoding.com/sketch -->
    <title>305FB01A-AB87-45D5-A9A7-40EA73CBA280</title>
    <desc>Created with sketchtool.</desc>
    <defs></defs>
    <g id="Symbols" stroke="none" stroke-width="1" fill="none" fill-rule="evenodd">
        <g id="icon/green/whastsapp/medium" fill="#0AD561" fill-rule="nonzero">
            <path d="M27.2071429,4.65 C24.2142857,1.65 20.2285714,0 15.9928571,0 C7.25,0 0.135714286,7.11428571 0.135714286,15.8571429 C0.135714286,18.65 0.864285714,21.3785714 2.25,23.7857143 L0,32 L8.40714286,29.7928571 C10.7214286,31.0571429 13.3285714,31.7214286 15.9857143,31.7214286 L15.9928571,31.7214286 C24.7285714,31.7214286 32,24.6071429 32,15.8642857 C32,11.6285714 30.2,7.65 27.2071429,4.65 Z M15.9928571,29.05 C13.6214286,29.05 11.3,28.4142857 9.27857143,27.2142857 L8.8,26.9285714 L3.81428571,28.2357143 L5.14285714,23.3714286 L4.82857143,22.8714286 C3.50714286,20.7714286 2.81428571,18.35 2.81428571,15.8571429 C2.81428571,8.59285714 8.72857143,2.67857143 16,2.67857143 C19.5214286,2.67857143 22.8285714,4.05 25.3142857,6.54285714 C27.8,9.03571429 29.3285714,12.3428571 29.3214286,15.8642857 C29.3214286,23.1357143 23.2571429,29.05 15.9928571,29.05 Z M23.2214286,19.1785714 C22.8285714,18.9785714 20.8785714,18.0214286 20.5142857,17.8928571 C20.15,17.7571429 19.8857143,17.6928571 19.6214286,18.0928571 C19.3571429,18.4928571 18.6,19.3785714 18.3642857,19.65 C18.1357143,19.9142857 17.9,19.95 17.5071429,19.75 C15.1785714,18.5857143 13.65,17.6714286 12.1142857,15.0357143 C11.7071429,14.3357143 12.5214286,14.3857143 13.2785714,12.8714286 C13.4071429,12.6071429 13.3428571,12.3785714 13.2428571,12.1785714 C13.1428571,11.9785714 12.35,10.0285714 12.0214286,9.23571429 C11.7,8.46428571 11.3714286,8.57142857 11.1285714,8.55714286 C10.9,8.54285714 10.6357143,8.54285714 10.3714286,8.54285714 C10.1071429,8.54285714 9.67857143,8.64285714 9.31428571,9.03571429 C8.95,9.43571429 7.92857143,10.3928571 7.92857143,12.3428571 C7.92857143,14.2928571 9.35,16.1785714 9.54285714,16.4428571 C9.74285714,16.7071429 12.3357143,20.7071429 16.3142857,22.4285714 C18.8285714,23.5142857 19.8142857,23.6071429 21.0714286,23.4214286 C21.8357143,23.3071429 23.4142857,22.4642857 23.7428571,21.5357143 C24.0714286,20.6071429 24.0714286,19.8142857 23.9714286,19.65 C23.8785714,19.4714286 23.6142857,19.3714286 23.2214286,19.1785714 Z" id="whatsapp-medium-green"></path>
        </g>
    </g>
</svg>

<svg width="32" height="32" xmlns="http://www.w3.org/2000/svg"><path d="M27.207 4.65C24.214 1.65 20.23 0 15.993 0 7.25 0 .136 7.114.136 15.857c0 2.793.728 5.522 2.114 7.929L0 32l8.407-2.207a15.809 15.809 0 0 0 7.579 1.928h.007C24.729 31.721 32 24.607 32 15.864c0-4.235-1.8-8.214-4.793-11.214zm-11.214 24.4c-2.372 0-4.693-.636-6.714-1.836L8.8 26.93l-4.986 1.307 1.329-4.865-.314-.5a13.136 13.136 0 0 1-2.015-7.014C2.814 8.593 8.73 2.68 16 2.68a13.06 13.06 0 0 1 9.314 3.864c2.486 2.493 4.015 5.8 4.007 9.321 0 7.272-6.064 13.186-13.328 13.186zm7.228-9.871c-.392-.2-2.342-1.158-2.707-1.286-.364-.136-.628-.2-.893.2-.264.4-1.021 1.286-1.257 1.557-.228.264-.464.3-.857.1-2.328-1.164-3.857-2.079-5.393-4.714-.407-.7.407-.65 1.165-2.165.128-.264.064-.492-.036-.692-.1-.2-.893-2.15-1.222-2.943-.321-.772-.65-.665-.892-.679-.229-.014-.493-.014-.758-.014-.264 0-.692.1-1.057.493-.364.4-1.385 1.357-1.385 3.307s1.421 3.836 1.614 4.1c.2.264 2.793 4.264 6.771 5.986 2.515 1.085 3.5 1.178 4.757.992.765-.114 2.343-.957 2.672-1.885.328-.929.328-1.722.228-1.886-.092-.179-.357-.279-.75-.471z" fill="#0AD561"/></svg>
